X: 062072
T: Five Crossroads
C: Joe Liddy
Z: BB
S: "The Leitrim Fiddler" (Dublin 1981)
L: 1/8
M: 6/8
R: jig
Q: 1/4 = 170
K: G
c | dBG dBG | _FE_F ABc | dBG dBG | AGF G2 c | 
dBG dBG | _FE_F ABc | BAG dGF | DGG G2 :|
A | Ggg _fgg | dgg fdc |1 dgg dfd | cAF GAc |
dgg _fgg | dgg fdc | BAG dGF | DGG G2 :|
[2 BAB cBc | de_f g2a | bag agf | dcd fdc |
BAG dGF | DGG G3 ||
%%%%%%%%%%%%%%%%%%%
